X:1
T:Vals
T:Vals
T:Ferdinando Carulli
T:Adaptación: A.G.Chico
C:Ferdinando Carulli
Z:Arr. A.G.Chico
%%score { ( 1 4 ) | ( 2 3 ) }
L:1/8
Q:1/4=88
M:3/4
K:G
V:1 treble-8 nm="Guitarra clásica" snm="Guit."
V:4 treble-8 
V:2 treble-8 
V:3 treble-8 
V:1
 z6 | z6 | z6 | z6 | z6 | z6 | z6 | z6 :: z6 | z6 | z6 | z6 | z6 | z6 | z6 | z6!fine! :: z6 | z6 | %18
 z6 | z6 | z6 | z6 | z6 | z6 ::"^Original" z2 !4!^d2 !1!A2 | z6 | z6 | z6 |"^Original" z2 ^d2 A2 | %29
 z6 | z6 | z6!D.C.! :| %32
V:2
 !0![GB]2 [GB]2 !3!!1![Ac]2 | z2 !4!d2 G2 | z2 e2 G2 | z2 d2 G2 | [GB]2 [GB]2 [Ac]2 | z2 d2 G2 | %6
 z2 c2 A2 | G6 :: z2 !2!f2 !1!c2 | z2 !4!g2 B2 | z2 c2 A2 | z2 B2 G2 | z2 f2 c2 | z2 g2 B2 | %14
 z2 c2 A2 | G6 :: z2 e2 B2 | z2 e2 B2 | z2 !3!f2 B2 | z2 !4!g2 B2 | z2 e2 B2 | z2 e2 B2 | %22
 z2 f2 B2 | e6 :: z2 !0!B2 !1!A2 | z2 e2 B2 | z2 !3!f2 B2 | z2 !4!g2 B2 | z2 ^d2 A2 | z2 e2 B2 | %30
 z2 f2 B2 | e6 :| %32
V:3
 x6 | !2!B,6 | !3!C6 | B,6 | x6 | B,6 | D6 | !3!G,6 :: D6 | D6 | D6 | D6 | D6 | D6 | D6 | G,6 :: %16
 !2!E6 | !0!G6 | !1!^D6 | !2!E6 | E6 | G6 | ^D6 | E6 :: !3!F6 | G6 | !1!^D6 | !2!E6 | F6 | G6 | %30
 ^D6 | E6 :| %32
V:4
 x6 | x6 | x6 | x6 | x6 | x6 | x6 | x6 :: x6 | x6 | x6 | x6 | x6 | x6 | x6 | x6 :: x6 | x6 | x6 | %19
 x6 | x6 | x6 | x6 | x6 :: !3!F6 | x6 | x6 | x6 | F6 | x6 | x6 | x6 :| %32

